X:66
T: I'll Gang Nae Mair Tae Yon Toon
R:Reel
M:2/4
L:1/8
%%printtempo 0
Q:1/4=130
K:A
"A"vAa "A/E"ae|"A"a2 "A/E"ae/d/|"A"ce "A/C#"A/>B/c/>e/|
"E7/B"cB "E7"B(c/B/)|"A"Aa "A/E"ae|"A"c2 "A/C#"Ae/d/|"A/E"ce "E"B(e/d/)|"A"cA Ae:|
"A"c(B/A/) "A/C#"ea |"D"fA "A/C#"eA |"A"c(B/A/) "F#m"eA |"Bm"f/>e/d/>c/ "E"B(e/d/)|"A"c(B/A/) "A/C#"eA|"D"fA "E"e>d|"A"ce "E"B(e/d/)|
"A"cA "A/E"Ae|"A"c(B/A/) "C#m"eA|"F#m"fA "C#m"eA|"A"c/>B/A/>c/ "A7/C#"e(a/e/)|"D"fB "E"Be|"A"a/>g/f/>e/ "A/E"ae|
"A"c2 "A/C#"Ae/d/ |"A/E"ce "E7"B(e/d/)|"A"vcuA "A7"vA|]
